polaris-icons/icons/new-icons/DomainRedirectMinor.svg

<svg width="20" height="20" viewBox="0 0 20 20" fill="none" xmlns="http://www.w3.org/2000/svg">
<path fill-rule="evenodd" clip-rule="evenodd" d="M11.9428 11.4479C11.3281 11.4825 10.6764 11.5002 10.0001 11.5002C9.32362 11.5002 8.67191 11.4825 8.05716 11.4479C8.01946 10.9876 8 10.503 8 10C8 9.63936 8.01001 9.28818 8.02956 8.94863C8.65945 8.98298 9.32024 9.00017 10 9.00017C10.4142 9.00017 10.75 8.66439 10.75 8.25017C10.75 7.83596 10.4142 7.50017 10 7.50017C9.37171 7.50017 8.76466 7.48492 8.18872 7.45498C8.2984 6.77674 8.45386 6.17611 8.64976 5.67857C9.08334 4.57736 9.5881 4.25 10 4.25C10.4142 4.25 10.75 3.91421 10.75 3.5C10.75 3.08579 10.4142 2.75 10 2.75C5.99594 2.75 2.75 5.99593 2.75 10C2.75 14.0032 5.99447 17.2485 9.99728 17.25L10 17.25C14.0041 17.25 17.25 14.0041 17.25 10C17.25 9.58579 16.9142 9.25 16.5 9.25C16.0858 9.25 15.75 9.58579 15.75 10C15.75 10.2977 15.7274 10.59 15.6838 10.8755C15.2063 11.0341 14.5635 11.1733 13.7743 11.2793C13.6704 11.2933 13.5644 11.3066 13.4566 11.3193C13.4856 10.8895 13.5 10.4483 13.5 10C13.5 9.58579 13.1642 9.25 12.75 9.25C12.3358 9.25 12 9.58579 12 10C12 10.503 11.9805 10.9876 11.9428 11.4479ZM11.3502 14.3214C10.9171 15.4215 10.413 15.7493 10.0013 15.75H10C9.5881 15.75 9.08334 15.4226 8.64976 14.3214C8.49487 13.928 8.36526 13.4702 8.26358 12.9605C8.82248 12.987 9.40399 13.0002 10.0001 13.0002C10.5961 13.0002 11.1775 12.987 11.7364 12.9606C11.6347 13.4702 11.5051 13.9281 11.3502 14.3214ZM7.25405 5.12904C7.00122 5.77118 6.81379 6.51951 6.68904 7.33587C6.55833 7.32143 6.43025 7.30607 6.30496 7.28978C5.83559 7.22876 5.41545 7.15606 5.04898 7.07421C5.59638 6.14989 6.39525 5.39209 7.35137 4.89501C7.31742 4.97237 7.28499 5.05046 7.25405 5.12904ZM6.11159 8.77726C5.51495 8.6997 4.95496 8.60011 4.45444 8.4749C4.32117 8.96059 4.25 9.47199 4.25 10C4.25 10.2976 4.27262 10.59 4.31622 10.8755C4.79368 11.0341 5.4365 11.1733 6.22576 11.2793C6.32969 11.2933 6.4356 11.3066 6.54341 11.3193C6.51436 10.8895 6.5 10.4483 6.5 10C6.5 9.60275 6.51128 9.211 6.53406 8.82788C6.3906 8.81209 6.24971 8.79522 6.11159 8.77726ZM13.2817 12.8474C13.1576 13.5926 12.9797 14.2772 12.746 14.871C12.715 14.9495 12.6826 15.0276 12.6486 15.105C13.7258 14.545 14.6034 13.654 15.1467 12.5668C14.7783 12.6448 14.3848 12.7108 13.9741 12.766C13.7505 12.796 13.5194 12.8232 13.2817 12.8474ZM4.85329 12.5668C5.39655 13.654 6.27415 14.545 7.35137 15.105C7.31742 15.0276 7.28499 14.9495 7.25405 14.871C7.02026 14.2772 6.8424 13.5926 6.71829 12.8474C6.4806 12.8232 6.24956 12.796 6.02598 12.766C5.61526 12.7108 5.22169 12.6448 4.85329 12.5668Z" fill="#4A4A4A"/>
<path d="M12.0124 6.96967C11.7195 7.26256 11.7195 7.73744 12.0124 8.03033C12.3053 8.32322 12.7802 8.32322 13.0731 8.03033L15.5427 5.56066V6.75C15.5427 7.16421 15.8785 7.5 16.2927 7.5C16.7069 7.5 17.0427 7.16421 17.0427 6.75V3.75C17.0427 3.33579 16.7069 3 16.2927 3L13.2927 3C12.8785 3 12.5427 3.33579 12.5427 3.75C12.5427 4.16421 12.8785 4.5 13.2927 4.5H14.4821L12.0124 6.96967Z" fill="#4A4A4A"/>
</svg>

<svg viewBox="0 0 20 20" xmlns="http://www.w3.org/2000/svg"><path fill-rule="evenodd" d="M11.943 11.448c-.615.034-1.267.052-1.943.052-.676 0-1.328-.018-1.943-.052a18.314 18.314 0 0 1-.028-2.5c.63.035 1.291.052 1.971.052a.75.75 0 0 0 0-1.5c-.628 0-1.235-.015-1.811-.045.11-.678.265-1.279.46-1.776.434-1.102.94-1.429 1.351-1.429a.75.75 0 0 0 0-1.5 7.25 7.25 0 0 0-.003 14.5h.003a7.25 7.25 0 0 0 7.25-7.25.75.75 0 0 0-1.5 0c0 .298-.023.59-.066.876-.478.158-1.12.297-1.91.403-.104.014-.21.028-.317.04.029-.43.043-.87.043-1.319a.75.75 0 0 0-1.5 0c0 .503-.02.988-.057 1.448Zm-.593 2.873c-.433 1.1-.937 1.428-1.349 1.429h-.001c-.412 0-.917-.327-1.35-1.429a8.037 8.037 0 0 1-.386-1.36 36.907 36.907 0 0 0 3.473 0c-.102.51-.232.967-.387 1.36Zm-4.096-9.192c-.253.642-.44 1.39-.565 2.207a20.09 20.09 0 0 1-.384-.046c-.47-.061-.89-.134-1.256-.216a5.777 5.777 0 0 1 2.302-2.179 6.594 6.594 0 0 0-.097.234Zm-1.142 3.648a14.74 14.74 0 0 1-1.658-.302 5.756 5.756 0 0 0-.138 2.4c.478.16 1.12.298 1.91.404.104.014.21.028.317.04a19.597 19.597 0 0 1-.009-2.491 21.63 21.63 0 0 1-.422-.05Zm7.17 4.07c-.124.746-.302 1.43-.536 2.024a6.709 6.709 0 0 1-.097.234 5.775 5.775 0 0 0 2.498-2.538c-.369.078-.762.144-1.173.199-.223.03-.455.057-.692.081Zm-8.429-.28a5.775 5.775 0 0 0 2.498 2.538 6.688 6.688 0 0 1-.097-.234 10.098 10.098 0 0 1-.536-2.024 21.862 21.862 0 0 1-.692-.081c-.41-.055-.804-.121-1.173-.2Z" fill="#5C5F62"/><path d="M12.012 6.97a.75.75 0 1 0 1.061 1.06l2.47-2.47v1.19a.75.75 0 0 0 1.5 0v-3a.75.75 0 0 0-.75-.75h-3a.75.75 0 0 0 0 1.5h1.19l-2.47 2.47Z" fill="#5C5F62"/></svg>
